raw/symbols/sui.svg

<svg width="42" height="42" viewBox="0 0 42 42" fill="none" xmlns="http://www.w3.org/2000/svg">
<rect width="42" height="42" rx="21" fill="#EBF7FF"/>
<path d="M15.9459 13.0996C15.6083 13.7834 15.0342 15.5611 15.4394 17.2022C15.8446 18.8432 17.9721 20.7919 23.5437 25.4073C24.8607 26.4982 25.6711 27.356 26.0763 28.997C26.4815 30.6381 26.2451 32.4158 26.0763 33.0996" stroke="#5697D5" stroke-width="3"/>
<path d="M21 34.75C27.0751 34.75 32 29.8251 32 23.75C32 22.1468 31.7004 20.25 30 17.75C28.2996 15.25 21 7.25 21 7.25C21 7.25 15.5 13.25 11.5 18.75C10.4431 20.2032 10 22.1468 10 23.75C10 29.8251 14.9249 34.75 21 34.75Z" stroke="#5697D5" stroke-width="3"/>
</svg>

<svg xmlns="http://www.w3.org/2000/svg" width="42" height="42" fill="none"><rect width="42" height="42" fill="#EBF7FF" rx="21"/><path stroke="#5697D5" stroke-width="3" d="M15.946 13.1c-.338.683-.912 2.461-.507 4.102.406 1.641 2.533 3.59 8.105 8.205 1.317 1.091 2.127 1.949 2.532 3.59.405 1.641.17 3.419 0 4.103"/><path stroke="#5697D5" stroke-width="3" d="M21 34.75c6.075 0 11-4.925 11-11 0-1.603-.3-3.5-2-6s-9-10.5-9-10.5-5.5 6-9.5 11.5c-1.057 1.453-1.5 3.397-1.5 5 0 6.075 4.925 11 11 11Z"/></svg>
